!!!!SEGMENT: 074-1c-LW-004.krn
!!!COM: Fryderyk Chopin
!!!OTL: DRINKING SONG.
!!!OTL: BACHANAL.
!!!OPS: op. 74
!!!PTL: 17 | POLISH SONGS | BY | WITWICKI, ZALESKI, MICKIEWICZ, ETC, | FOR | A SOPRANO OR TENOR VOICE | WITH ACCOMPANIMENT FOR THE | Pianoforte
!!!PPR: Stanley Lucas, Weber & Co.
!!!PPP: London
!!!NIFC-rismID: BRAK
!!!NIFC-shelfmark: PL-Wbfc 6139/n
!!!OMD: VIVACE. M.M. [half-dot] = 63.
!!!system-decoration: (s1){(s2,s3)}
**kern	**kern	**dynam	**kern	**text	**dynam
*part2	*part2	*part2	*part1	*	*part1
*staff3	*staff2	*	*staff1	*	*
*I"PIANO.	*	*	*I"VOICE.	*	*
*clefF4	*clefG2	*	*clefG2	*	*
*k[b-e-a-]	*k[b-e-a-]	*	*k[b-e-a-]	*	*
*E-:	*E-:	*	*E-:	*	*
*M3/4	*M3/4	*	*M3/4	*	*
*	*	*	*	*	*
=1	=1	=1	=1	=1	=1
*	*clefF4	*	*	*	*
4BB-/ 4BBB-/	4B-	f	2.r	.	.
4BB-/ 4BBB-/	4B-	.	.	.	.
16AA/qqL	16AqqL	.	.	.	.
16GGqqJ	16GqqJ	.	.	.	.
4FF/	4F	sf	.	.	.
=2	=2	=2	=2	=2	=2
4BB-/ 4BBB-/	4B-	.	2.r	.	.
4BB-/ 4BBB-/	4B-	.	.	.	.
16AA/qqL	16AqqL	.	.	.	.
16GGqqJ	16GqqJ	.	.	.	.
4FF/	4F	sf	.	.	.
=3	=3	=3	=3	=3	=3
4BB-/ 4BBB-/	4B-	.	2.r	.	.
4BB-/ 4BBB-/	4B-	.	.	.	.
16AA/qqL	16AqqL	.	.	.	.
16GGqqJ	16GqqJ	.	.	.	.
4FF/	4F	sf	.	.	.
=4	=4	=4	=4	=4	=4
4BB-/ 4BBB-/	4B-	.	2.r	.	.
4BB-/ 4BBB-/	4B-	.	.	.	.
*	*clefG2	*	*	*	*
4BB-^>/ 4BBB-/	4a-X^> 4d 4B-	.	.	.	.
=5||	=5||	=5||	=5||	=5||	=5||
*	*	*	*	*^	*
!	!	!	!LO:TX:a:i:t=risoluto.	!	!	!
4E- 4EE-	4g 4e- 4B-	mf	8g	Ho-	Ho-	.
.	.	.	8f	-la!	-la,	.
4E- 4EE-	4g 4e- 4B-	.	4.e-	com-	hei-	.
4E- 4EE-	4g 4e- 4B-	.	.	.	.	.
.	.	.	8f	-rades,	-ter!	.
!!LO:LB:g=original
=6	=6	=6	=6	=6	=6	=6
!	!	!	!LO:TX:t=P:problem:"cres:" znajduje się nad 8a-	!	!	!LO:HP:a
4EE- 4E-	4g 4e- 4B-	<	8g	fill	trin-	<
.	.	.	8a-	your	-ke	.
4EE- 4E-	4g 4e- 4B-	.	4.b-	glass-	wei-	.
4EE- 4E-	4g 4e- 4B-	.	.	.	.	.
.	.	.	8cc	-es	-ter	.
=7	=7	=7	=7	=7	=7	=7
4EE- 4E-	4g 4e- 4B-	.	8b-	'tis	bis	.
.	.	.	8cc	no	in	.
4EE- 4E-	4g 4e- 4B-	.	4b-	time	E-	.
4EE- 4E-	4g 4e- 4B-	.	4ee-	to	-wig-	.
=8	=8	=8	=8	=8	=8	=8
!	!	!	!	!	!	!LO:DY:a
!	!	!	!	!	!	!LO:DY:rj
!	!	!LO:DY:rj	!	!	!	!
2.BB- 2.BBB-;<	2.b-;> 2.f 2.d 2.B-	ff	2.ff;>	stop;	-keit!	sf
.	.	.	.	.	.	.
=9	=9	=9	=9	=9	=9	=9
!	!	!LO:DY:rj	!	!	!	!LO:DY:a:rj
2.BB-/	4r	p	8a-	I	Ha,	p
.	.	.	8cc	will	du	.
.	4a-/ 4d/ 4B-/	.	4a-	give	Lo-	.
.	.	.	(<16qqa-/LL	.	.	.
.	.	.	16qqg/JJ	.	.	.
.	4a-/ 4d/ 4B-/	.	4f^>)	you	-se,	.
=10	=10	=10	=10	=10	=10	=10
2.E-\	4r	.	8g	"Bon-	im	.
.	.	.	8b-	-ny	Ge-	.
.	4g/ 4e-/ 4B-/	.	4g	Lass-	-ko-	.
.	.	.	(<16qqg/LL	.	.	.
.	.	.	16qqf/JJ	.	.	.
.	4g/ 4e-/ 4B-/	.	4e-^>)	-es;"	-se	.
!!LO:LB:g=original
=11	=11	=11	=11	=11	=11	=11
!	!	!	!	!	!	!LO:HP:a
2.BB-/	4r	.	8f	do	giesst	<
.	.	.	.	.	.	.
.	.	.	8g	not	mir	.
.	4a- 4d 4B-	.	4a-	leave	Wein	.
.	4a- 4d 4B-	.	4cc	a	auf's	.
.	.	.	.	.	.	[
=12	=12	=12	=12	=12	=12	=12
2E-\	4r	.	2.b-	drop.	Kleid,	.
.	4g 4e- 4B-	.	.	.	.	.
4EX	4g^< 4d-X 4B-	.	.	.	.	.
=13	=13	=13	=13	=13	=13	=13
!	!LO:TX:b:i:t=legato.	!	!	!	!	!
4F	4a- 4f 4c	.	8a-	I	ha,	.
.	.	.	.	.	.	.
.	.	.	8cc	will	du	.
4E-X\	4a- 4f 4c-X	.	4a-	give	Lo-	.
.	.	.	(<16qqa-/LL	.	.	.
.	.	.	16qqg/JJ	.	.	.
4D	4a-^< 4f 4B-	.	4f^>)	you	-se,	.
=14	=14	=14	=14	=14	=14	=14
!	!	!	!LO:TX:t=P:problem:słowa zapisane w źródle bez podziału na sylaby zakodowane bez kreseczek między sylabami	!	!	!
4E-	4g 4e- 4B-	.	8g	"Bon	im	.
.	.	.	8b-	ny	Ge-	.
4C	4g 4e- 4c	.	4g	Lass	-ko-	.
.	.	.	(<16qqg/LL	.	.	.
.	.	.	16qqf/JJ	.	.	.
4GG	4g^< 4e- 4B-	.	4e-^>)	es;"	-se	.
=15	=15	=15	=15	=15	=15	=15
4AA-/	4f 4e- 4c	.	8f	do	giesst	.
.	.	.	8cc	not	mir	.
4BB-	4a- 4d 4B-	.	4.b-^>	leave	Wein	.
4BB-	4a- 4d 4B-	.	.	.	.	.
.	.	.	8dJ	a	auf's	.
!!LO:LB:g=original
=16	=16	=16	=16	=16	=16	=16
4E-/ 4EE-/	4g 4e- 4B-	.	2.e-	drop.	Kleid.	.
4B-\ 4E-\	4r	.	.	.	.	.
4B-^> 4E-	4r	.	.	.	.	.
*	*	*	*	*v	*v	*
=17	=17	=17	=17	=17	=17
!	!	!LO:DY:rj	!	!	!
4d 4B- 4A- 4E-	(>8b-\L]	f	2.r	.	.
.	8ffJ	.	.	.	.
4d 4B- 4A- 4E-	4.bb-)	.	.	.	.
4d 4B- 4A- 4E-	.	.	.	.	.
.	8gg	.	.	.	.
=18	=18	=18	=18	=18	=18
4d 4B- 4A- 4E-	(>8ffL	.	2.r	.	.
.	8b-Jk)	.	.	.	.
4d 4B- 4A- 4E-	4.ff	.	.	.	.
4e- 4B- 4G 4E-	.	.	.	.	.
.	8ee-T>	.	.	.	.
=19	=19	=19	=19	=19	=19
4d 4B- 4A- 4E-	8b-L	<	2.r	.	.
.	8ffk	.	.	.	.
4d 4B- 4A- 4E-	8bb-	[	.	.	.
.	8aaX	.	.	.	.
4d 4B- 4A- 4E-	8bb-	.	.	.	.
.	8ggJ	.	.	.	.
=20	=20	=20	=20	=20	=20
4d 4B- 4A- 4E-	(>8ffL	.	2.r	.	.
.	8b-Jk)	.	.	.	.
4e- 4B- 4G 4E-	4ee-	.	.	.	.
4e- 4B- 4G 4E-	(>8ggL	.	.	.	.
.	8aaXJ)	.	.	.	.
=21	=21	=21	=21	=21	=21
4d 4B- 4A- 4E-	(>8bb-L	.	2.r	.	.
.	8b-Jk)	.	.	.	.
4e- 4B- 4G 4E-	4ee-	.	.	.	.
4e- 4B- 4G 4E-	(>8ggL	.	.	.	.
.	8aaXJ)	.	.	.	.
=22	=22	=22	=22	=22	=22
4d 4B- 4A- 4E-	(>8bb-L	.	2.r	.	.
.	8b-Jk)	.	.	.	.
4e- 4B- 4G 4E-	4ee-	.	.	.	.
4e- 4B- 4G 4E-	(>8ggL	.	.	.	.
.	8aaXJ)	.	.	.	.
!!LO:LB:g=original
=23	=23	=23	=23	=23	=23
4d 4B- 4A- 4E-	(>8bb-L	.	2.r	.	.
.	8cccJk	.	.	.	.
4d 4B- 4A- 4E-	4bb-	.	.	.	.
4d 4B- 4A- 4E-	8ffL	.	.	.	.
.	8ggXJ)	.	.	.	.
=24	=24	=24	=24	=24	=24
4e- 2B- 2G 2E-	4ee-	.	2.r	.	.
4E- 4EE-	4ee- 4bb- 4gg 4eee-	sf	.	.	.
4r	4r	.	.	.	.
*	*clefF4	*	*	*	*
=25	=25	=25	=25	=25	=25
4BB-/ 4BBB-/	4B-	f	2.r	.	.
4BB-/ 4BBB-/	4B-	.	.	.	.
16AA/qqL	16AqqL	.	.	.	.
16GGqqJ	16GqqJ	.	.	.	.
4FF/	4F	sf	.	.	.
=26	=26	=26	=26	=26	=26
*	*	*	*	*	*
4BB-/ 4BBB-/	4B-	.	2.r	.	.
4BB-/ 4BBB-/	4B-	.	.	.	.
16AA/qqL	16AqqL	.	.	.	.
16GGqqJ	16GqqJ	.	.	.	.
4FF/	4F	sf	.	.	.
=27	=27	=27	=27	=27	=27
*	*	*	*	*	*
4BB-/ 4BBB-/	4B-	.	2.r	.	.
4BB-/ 4BBB-/	4B-	.	.	.	.
16AA/qqL	16AqqL	.	.	.	.
16GGqqJ	16GqqJ	.	.	.	.
4FF/	4F	sf	.	.	.
=28	=28	=28	=28	=28	=28
4BB-/ 4BBB-/	4B-	.	2.rffyy	.	.
4BB-/ 4BBB-/	4B-	.	.	.	.
*	*clefG2	*	*	*	*
4BB-^>/ 4BBB-/	4a-X^> 4d 4B-	.	.	.	.
!!LO:PB:g=original
=29||	=29||	=29||	=29||	=29||	=29||
*	*	*	*	*^	*
*	*	*	*	*	*^	*
*	*	*	*	*	*	*^	*
!	!	!	!LO:TX:a:i:t=risoluto.	!	!	!	!	!
!	!	!LO:DY:rj	!	!	!	!	!	!
4E- 4EE-	4g 4e- 4B-	mf	8g	From	There	Fass'	Willst	.
.	.	.	8f	the	are	ich,	du	.
4E- 4EE-	4g 4e- 4B-	.	4.e-	toast	some	Täub-	träu-	.
4E- 4EE-	4g 4e- 4B-	.	.	.	.	.	.	.
.	.	.	8f	let	that	-chen,	-men?	.
=30	=30	=30	=30	=30	=30	=30	=30	=30
4EE- 4E-	4g 4e- 4B-	.	8g	none	would	dich	willst	.
!	!	!	!LO:TX:t=P:problem:"cres:" znajduje się nad 8a-	!	!	!	!	!LO:HP:a
.	.	<	8a-	be	per	um's	ver-	<
4EE- 4E-	4g 4e- 4B-	.	4.b-	shrink	suade	Leib	-säu	.
4EE- 4E-	4g 4e- 4B-	.	.	.	.	.	.	.
.	.	.	8cc	ing,	us	chen,	men	.
=31	=31	=31	=31	=31	=31	=31	=31	=31
4EE- 4E-	4g 4e- 4B-	.	8b-	none	'tis	wie	was	.
.	.	.	8cc	be-	a	die	ein	.
4EE- 4E-	4g 4e- 4B-	.	4b-	-hind	sin	Au-	Gott	.
4EE- 4E-	4g 4e- 4B-	.	4ee-	the	-to	-gen	be-	.
=32	=32	=32	=32	=32	=32	=32	=32	=32
!	!	!	!	!	!	!	!	!LO:DY:a
!	!	!	!	!	!	!	!	!LO:DY:rj
!	!	!LO:DY:rj	!	!	!	!	!	!
[>2.BB-/;< [<2.BBB-	2.b- [>2.f [<2.d; [<2.B-	ff	2.ff;>	rest;	drink;	sprüh'n!	-scheert?	sf
.	.	.	.	.	.	.	.	.
=33	=33	=33	=33	=33	=33	=33	=33	=33
!	!	!	!	!	!	!	!	!LO:DY:rj
!	!	!	!	!	!	!	!	!LO:DY:a
2.BB-/] 2.BBB-/]	4f] 4d] 4B-]	p	8a-	And	But	Lip-	un-	p
.	.	.	8cc	re-	tho'	-pen	-sre	.
.	4a-/ 4d/ 4B-/	.	4a-	-mem-	sour-	müs-	Er-	.
.	.	.	(<16qqa-/LL	.	.	.	.	.
.	.	.	16qqg/JJ	.	.	.	.	.
.	4a-/ 4d/ 4B-/^>	.	4f^>)	-ber,	-ly	-sen	-de	.
!!LO:LB:g=original
=34	=34	=34	=34	=34	=34	=34	=34	=34
2.E-\	4r	.	8g	when	they	feu-	voll	.
.	.	.	8b-	you're	up-	-rig	Be-	.
.	4g/ 4e-/ 4B-/	.	4g	drink-	-braid	küs-	-schwer-	.
.	.	.	(<16qqg/LL	.	.	.	.	.
.	.	.	16qqf/JJ	.	.	.	.	.
.	4g^>/ 4e-/ 4B-/	.	4e-^>)	-ing,	us,	-sen,	-de	.
=35	=35	=35	=35	=35	=35	=35	=35	=35
2.BB-/	4r	.	8f	her	care	wenn	ist	.
!	!	!	!	!	!	!	!	!LO:HP:a
.	.	.	8g	that	not	die	den	<
.	4a- 4d 4B-	.	4a-	each	what	Wan-	Teu-	.
.	4a- 4d 4B-	.	4cc	loves	they	-gen	-fel	[
=36	=36	=36	=36	=36	=36	=36	=36	=36
2E-\	4r	.	2.b-^>	best,	think,	glüh'n,	werth,	.
.	4g 4e- 4B-	.	.	.	.	.	.	.
4EX	4g^> 4d-X 4B-	.	.	.	.	.	.	.
=37	=37	=37	=37	=37	=37	=37	=37	=37
!	!LO:TX:b:i:t=legato.	!	!	!	!	!	!	!
4F	4a- 4f 4c	.	8a-	And	But	Lip-	un-	.
.	.	.	.	.	.	.	.	.
.	.	.	8cc	re-	tho'	-pen	-sre	.
4E-X\	4a- 4f 4c-X	.	4a-	-mem-	sour-	müs-	Er-	.
.	.	.	(<16qqa-/LL	.	.	.	.	.
.	.	.	16qqg/JJ	.	.	.	.	.
4D	4a-^> 4f 4B-	.	4f^>)	-ber,	-ly	-sen	-de	.
!!LO:LB:g=original
=38	=38	=38	=38	=38	=38	=38	=38	=38
4E-	4g 4e- 4B-	.	8g	when	they	feu-	voll	.
.	.	.	8b-	you're	up-	-rig	Be-	.
4C	4g 4e- 4c	.	4g	drink-	-braid	küs-	-schwer-	.
.	.	.	(<16qqg/LL	.	.	.	.	.
.	.	.	16qqf/JJ	.	.	.	.	.
4GG	4g^> 4e- 4B-	.	4e-^>)	-ing,	us,	-sen,	-de	.
=39	=39	=39	=39	=39	=39	=39	=39	=39
4AA-/	4f 4e- 4c	.	8f	her	care	wenn	ist	.
.	.	.	8cc	that	not	die	den	.
4BB-	4a- 4d 4B-	.	4.b-^>	each	what	Wan-	Teu-	.
4BB-	4a- 4d 4B-	.	.	.	.	.	.	.
.	.	.	8dJ	loves	they	-gen	-fel	.
=40	=40	=40	=40	=40	=40	=40	=40	=40
4E-/ 4EE-/	4g 4e- 4B-	.	2.e-	best.	think.	glüh'n!	werth!	.
4B- 4E-\	4r	.	.	.	.	.	.	.
4B-^> 4E-\	4r	.	.	.	.	.	.	.
*	*	*	*	*	*	*v	*v	*
*	*	*	*	*	*v	*v	*
*	*	*	*	*v	*v	*
=41	=41	=41	=41	=41	=41
!	!	!LO:DY:rj	!	!	!
4d 4B- 4A- 4E-	(>8b-\L]	f	2.r	.	.
.	8ffJ	.	.	.	.
4d 4B- 4A- 4E-	4.bb-)	.	.	.	.
4d 4B- 4A- 4E-	.	.	.	.	.
.	8gg	.	.	.	.
=42	=42	=42	=42	=42	=42
4d 4B- 4A- 4E-	(>8ffL	.	2.r	.	.
.	8b-Jk)	.	.	.	.
4d 4B- 4A- 4E-	4.ff	.	.	.	.
4e- 4B- 4G 4E-	.	.	.	.	.
.	8ee-T>	.	.	.	.
!!LO:LB:g=original
=43	=43	=43	=43	=43	=43
4d 4B- 4A- 4E-	8b-L	<	2.r	.	.
.	8ffk	.	.	.	.
4d 4B- 4A- 4E-	8bb-	[	.	.	.
.	8aaX	.	.	.	.
4d 4B- 4A- 4E-	8bb-	.	.	.	.
.	8ggJ	.	.	.	.
=44	=44	=44	=44	=44	=44
4d 4B- 4A- 4E-	(>8ffL	.	2.r	.	.
.	8b-Jk)	.	.	.	.
4e- 4B- 4G 4E-	4ee-	.	.	.	.
4e- 4B- 4G 4E-	(>8ggL	.	.	.	.
.	8aaXJ)	.	.	.	.
=45	=45	=45	=45	=45	=45
4d 4B- 4A- 4E-	(>8bb-L	.	2.r	.	.
.	8b-Jk)	.	.	.	.
4e- 4B- 4G 4E-	4ee-	.	.	.	.
4e- 4B- 4G 4E-	(>8ggL	.	.	.	.
.	8aaXJ)	.	.	.	.
=46	=46	=46	=46	=46	=46
4d 4B- 4A- 4E-	(>8bb-L	.	2.r	.	.
.	8b-Jk)	.	.	.	.
4e- 4B- 4G 4E-	4ee-	.	.	.	.
4e- 4B- 4G 4E-	(>8ggL	.	.	.	.
.	8aaXJ)	.	.	.	.
=47	=47	=47	=47	=47	=47
4d 4B- 4A- 4E-	(>8bb-L	.	2.r	.	.
.	8cccJk	.	.	.	.
4d 4B- 4A- 4E-	4bb-	.	.	.	.
4d 4B- 4A- 4E-	8ffL	.	.	.	.
.	8ggXJ)	.	.	.	.
=48	=48	=48	=48	=48	=48
4e- 2B- 2G 2E-	4ee-	.	2.r	.	.
4E- 4EE-	4ee- 4bb- 4gg 4eee-	sf	.	.	.
4r	4r	.	.	.	.
!!LO:PB:g=original
=49||	=49||	=49||	=49||	=49||	=49||
*	*	*	*	*^	*
*	*	*	*	*	*^	*
*	*	*	*	*	*	*^	*
!	!	!	!LO:TX:a:i:t=risoluto.	!	!	!	!	!
!	!	!LO:DY:rj	!	!	!	!	!	!
4E- 4EE-	4g 4e- 4B-	mf	8g	Sure-	Come	Kannst	Lass	.
.	.	.	8f	-ly	then,	nicht	sie	.
4E- 4EE-	4g 4e- 4B-	.	4.e-	wine	com-	ste-	flu-	.
4E- 4EE-	4g 4e- 4B-	.	.	.	.	.	.	.
.	.	.	8f	was	-rades,	-hen,	-chen,	.
=50	=50	=50	=50	=50	=50	=50	=50	=50
4EE- 4E-	4g 4e- 4B-	.	8g	giv'n	fill	kannst	lass	.
.	.	.	.	.	.	.	.	.
!	!	!	!LO:TX:t=P:problem:"cres:" znajduje się nad 8a-	!	!	!	!	!LO:HP:a
.	.	<	8a-	to	your	nicht	sie	<
4EE- 4E-	4g 4e- 4B-	.	4.b-	cheer	glass-	ge-	su-	.
4EE- 4E-	4g 4e- 4B-	.	.	.	.	.	.	.
.	.	.	8cc	us,	-es,	-hen,	-chen,	.
=51	=51	=51	=51	=51	=51	=51	=51	=51
4EE- 4E-	4g 4e- 4B-	.	8b-	giv'n	take	möch-	Lieb-	.
.	.	.	8cc	to	the	-test	-chen	.
4EE- 4E-	4g 4e- 4B-	.	4b-	make	time	gern	schenk'	.
4EE- 4E-	4g 4e- 4B-	.	4ee-	us	from	hin-	mir	.
=52	=52	=52	=52	=52	=52	=52	=52	=52
!	!	!	!	!	!	!	!	!LO:DY:a:rj
!	!	!LO:DY:rj	!	!	!	!	!	!
[>2.BB-/;< [<2.BBB-	2.b-;> [>2.f [<2.d [<2.B-	ff	2.ff;>	glad;	me;	-aus?	ein!	sf
.	.	.	.	.	.	.	.	.
=53	=53	=53	=53	=53	=53	=53	=53	=53
!	!	!	!	!	!	!	!	!LO:DY:a:rj
2.BB-/] 2.BBB-/]	4f] 4d] 4B-]	p	8a-	Do	Here	Wei-	Lass	p
.	.	.	8cc	not	I	-ber	uns	.
.	4a-/ 4d/ 4B-/	.	4a-	fan-	give	flu-	trin-	.
.	.	.	(<16qqa-/LL	.	.	.	.	.
.	.	.	16qqg/JJ	.	.	.	.	.
.	4a-/ 4d/ 4B-/	.	4f^>)	-cy	you	-chen,	-ken	.
!!LO:LB:g=original
=54	=54	=54	=54	=54	=54	=54	=54	=54
2.E-\	4r	.	8g	good	"Bon-	die	bis	.
.	.	.	8b-	comes	-ny	dich	wir	.
.	4g/ 4e-/ 4B-/	.	4g	near	Lass-	su-	sin-	.
.	.	.	(<16qqg/LL	.	.	.	.	.
.	.	.	16qqf/JJ	.	.	.	.	.
.	4g^>/ 4e-/ 4B-/	.	4e-^>)	us,	-es;"	-chen,	-ken,	.
=55	=55	=55	=55	=55	=55	=55	=55	=55
2.BB-/	4r	.	8f	on-	now	ru-	lass	.
.	.	.	.	.	.	.	.	.
!	!	!	!	!	!	!	!	!LO:HP:a
.	.	.	8g	-ly	for	-fen	uns	<
.	4a- 4d 4B-	.	4a-	when	"three	dich	se	.
.	4a- 4d 4B-	.	4cc	we're	times	nach	lig	.
.	.	.	.	.	.	.	.	[
=56	=56	=56	=56	=56	=56	=56	=56	=56
2E-\	4r	.	2.b-^>	sad,	three,"	Haus,	sein,	.
.	4g 4e- 4B-	.	.	.	.	.	.	.
4EX	4g^> 4d-X 4B-	.	.	.	.	.	.	.
=57	=57	=57	=57	=57	=57	=57	=57	=57
!	!LO:TX:b:i:t=legato.	!	!	!	!	!	!	!
4F	4a- 4f 4c	.	8a-	Do	Here	Wei-	Lass	.
.	.	.	.	.	.	.	.	.
.	.	.	8cc	not	I	-ber	uns	.
4E-X\	4a- 4f 4c-X	.	4a-	fan-	give	flu-	trin-	.
.	.	.	(<16qqa-/LL	.	.	.	.	.
.	.	.	16qqg/JJ	.	.	.	.	.
4D	4a-^> 4f 4B-	.	4f^>)	-cy	you	-chen,	-ken	.
!!LO:LB:g=original
=58	=58	=58	=58	=58	=58	=58	=58	=58
4E-	4g 4e- 4B-	.	8g	good	"Bon-	die	bis	.
.	.	.	8b-	comes	-ny	dich	wir	.
4C	4g 4e- 4c	.	4g	near	Lass-	su-	sin-	.
.	.	.	(<16qqg/LL	.	.	.	.	.
.	.	.	16qqf/JJ	.	.	.	.	.
4GG	4g^> 4e- 4B-	.	4e-^>)	us,	-es;"	-chen	-ken	.
=59	=59	=59	=59	=59	=59	=59	=59	=59
4AA-/	4f 4e- 4c	.	8f	on-	now	ru-	lass	.
.	.	.	8cc	-ly	for	-fen	uns	.
4BB-	4a- 4d 4B-	.	4.b-^>	when	"three	dich	se-	.
4BB-	4a- 4d 4B-	.	.	.	.	.	.	.
.	.	.	8dJ	we're	times	nach	-lig	.
=60	=60	=60	=60	=60	=60	=60	=60	=60
4E-/ 4EE-/	4g 4e- 4B-	.	2.e-	sad.	three."	Haus!	sein.	.
4B- 4E-\	4r	.	.	.	.	.	.	.
4B-^> 4E-\	4r	.	.	.	.	.	.	.
*	*	*	*	*	*	*v	*v	*
*	*	*	*	*	*v	*v	*
*	*	*	*	*v	*v	*
=61	=61	=61	=61	=61	=61
!	!	!LO:DY:rj	!	!	!
4d 4B- 4A- 4E-	(>8b-\L]	f	2.r	.	.
.	8ffJ	.	.	.	.
4d 4B- 4A- 4E-	4.bb-)	.	.	.	.
4d 4B- 4A- 4E-	.	.	.	.	.
.	8gg	.	.	.	.
=62	=62	=62	=62	=62	=62
4d 4B- 4A- 4E-	(>8ffL	.	2.r	.	.
.	8b-Jk)	.	.	.	.
4d 4B- 4A- 4E-	4.ff	.	.	.	.
4e- 4B- 4G 4E-	.	.	.	.	.
.	8ee-T>	.	.	.	.
!!LO:LB:g=original
=63	=63	=63	=63	=63	=63
4d 4B- 4A- 4E-	8b-L	<	2.r	.	.
.	8ffk	.	.	.	.
4d 4B- 4A- 4E-	8bb-	[	.	.	.
.	8aaX	.	.	.	.
4d 4B- 4A- 4E-	8bb-	.	.	.	.
.	8ggJ	.	.	.	.
=64	=64	=64	=64	=64	=64
4d 4B- 4A- 4E-	(>8ffL	.	2.r	.	.
.	8b-Jk)	.	.	.	.
4e- 4B- 4G 4E-	4ee-	.	.	.	.
4e- 4B- 4G 4E-	(>8ggL	.	.	.	.
.	8aaXJ)	.	.	.	.
=65	=65	=65	=65	=65	=65
4d 4B- 4A- 4E-	(>8bb-L	.	2.r	.	.
.	8b-Jk)	.	.	.	.
4e- 4B- 4G 4E-	4ee-	.	.	.	.
4e- 4B- 4G 4E-	(>8ggL	.	.	.	.
.	8aaXJ)	.	.	.	.
=66	=66	=66	=66	=66	=66
4d 4B- 4A- 4E-	(>8bb-L	.	2.r	.	.
.	8b-Jk)	.	.	.	.
4e- 4B- 4G 4E-	4ee-	.	.	.	.
4e- 4B- 4G 4E-	(>8ggL	.	.	.	.
.	8aaXJ)	.	.	.	.
=67	=67	=67	=67	=67	=67
4d 4B- 4A- 4E-	(>8bb-L	.	2.r	.	.
.	8cccJk	.	.	.	.
4d 4B- 4A- 4E-	4bb-	.	.	.	.
4d 4B- 4A- 4E-	8ffL	.	.	.	.
.	8ggXJ)	.	.	.	.
=68	=68	=68	=68	=68	=68
4e- 2B- 2G 2E-	4ee-	.	2.r	.	.
4E- 4EE-	4ee- 4bb- 4gg 4eee-	sf	.	.	.
4r	4r	.	.	.	.
==	==	==	==	==	==
*-	*-	*-	*-	*-	*-
!!title: @{OTL}; @{OPS} @{ONM} publisher: @{PPR}
!!!RDF**kern: > = above
!!!RDF**kern: < = below
!!!RDF**kern: N = linked
!!!RDF**dynam: < = "cres:", fontstyle = "italic"
!!!RDF**kern: i = editorial accidental, bracked
!!!ENC: Mateusz Mrugas
!!!END: 2020-02-01
!!!EED: Jędrzej Mróz
!!!EST: revision finished 2020-02-06
